src/assets/uber.svg

<svg height="300" viewBox="0 0 34 34" width="300" xmlns="http://www.w3.org/2000/svg"><g fill="none" fill-rule="evenodd"><rect fill="#000" height="33" rx="2.5" width="33" x=".5" y=".5"/><g fill="#fff"><path d="m31 1c1.1045695 0 2 .8954305 2 2v28c0 1.1045695-.8954305 2-2 2h-28c-1.1045695 0-2-.8954305-2-2v-28c0-1.1045695.8954305-2 2-2zm0-1h-28c-1.65685425 0-3 1.34314575-3 3v28c0 1.6568542 1.34314575 3 3 3h28c1.6568542 0 3-1.3431458 3-3v-28c0-1.65685425-1.3431458-3-3-3z"/><path d="m17 7c-5.1356533-.00006452-9.43643467 3.8900895-9.95 9h6.95v-1.5c0-.2761424.2238576-.5.5-.5h5c.2761424 0 .5.2238576.5.5v5c0 .2761424-.2238576.5-.5.5h-5c-.2761424 0-.5-.2238576-.5-.5v-1.5h-6.95c.53928848 5.3658527 5.2362527 9.3375518 10.6171192 8.9777144 5.3808665-.3598375 9.5071695-4.9215795 9.3271843-10.3114601-.1799852-5.3898805-4.6014187-9.66618655-9.9943035-9.6662543z"/></g></g></svg>

<?xml version="1.0" encoding="UTF-8"?>
<svg width="300px" height="300px" viewBox="0 0 34 34" version="1.1" xmlns="http://www.w3.org/2000/svg" xmlns:xlink="http://www.w3.org/1999/xlink">
    <!-- Generator: Sketch 41 (35326) - http://www.bohemiancoding.com/sketch -->
    <title>uber_rides_api_icon</title>
    <desc>Created with Sketch.</desc>
    <defs></defs>
    <g id="Page-1" stroke="none" stroke-width="1" fill="none" fill-rule="evenodd">
        <g id="uber_rides_api_icon">
            <rect id="Rectangle-path" fill="#000000" x="0.5" y="0.5" width="33" height="33" rx="2.5"></rect>
            <path d="M31,1 C32.1045695,1 33,1.8954305 33,3 L33,31 C33,32.1045695 32.1045695,33 31,33 L3,33 C1.8954305,33 1,32.1045695 1,31 L1,3 C1,1.8954305 1.8954305,1 3,1 L31,1 L31,1 Z M31,0 L3,0 C1.34314575,-4.4408921e-16 0,1.34314575 -2.22044605e-16,3 L-2.22044605e-16,31 C0,32.6568542 1.34314575,34 3,34 L31,34 C32.6568542,34 34,32.6568542 34,31 L34,3 C34,1.34314575 32.6568542,0 31,-2.22044605e-16 L31,-2.22044605e-16 L31,0 Z" id="Shape" fill="#FFFFFF"></path>
            <path d="M17,7 C11.8643467,6.99993548 7.56356533,10.8900895 7.05,16 L14,16 L14,14.5 C14,14.2238576 14.2238576,14 14.5,14 L19.5,14 C19.7761424,14 20,14.2238576 20,14.5 L20,19.5 C20,19.7761424 19.7761424,20 19.5,20 L14.5,20 C14.2238576,20 14,19.7761424 14,19.5 L14,18 L7.05,18 C7.58928848,23.3658527 12.2862527,27.3375518 17.6671192,26.9777144 C23.0479857,26.6178769 27.1742887,22.0561349 26.9943035,16.6662543 C26.8143183,11.2763738 22.3928848,7.00006775 17,7 L17,7 Z" id="Shape" fill="#FFFFFF"></path>
        </g>
    </g>
</svg>
